src/16/actions/format-text-bold.svg

<svg xmlns="http://www.w3.org/2000/svg" viewBox="0 0 16 16">
  <defs id="defs3051">
    <style type="text/css" id="current-color-scheme">
      .ColorScheme-Text {
        color:#5d656b;
      }
      </style>
  </defs>
 <path style="fill:currentColor;fill-opacity:1;stroke:none" 
       d="M 2.375 2 C 2.24647 2 2.12349 2.01355 2 2.03125 L 2 3 C 2.5522847 3 3 3.4477153 3 4 L 3 12 C 3 12.552285 2.5522847 13 2 13 L 2 13.96875 C 2.12349 13.98675 2.24647 14 2.375 14 L 3.5 14 L 6.5 14 L 10.25 14 C 12.3275 14 14 12.3275 14 10.25 C 14 8.59629 12.9177 7.21992 11.4375 6.71875 C 12.07059 6.24035 12.5 5.4832 12.5 4.625 C 12.5 3.17075 11.32925 2 9.875 2 L 6.5 2 L 3.5 2 L 2.375 2 z M 6 3 L 9 3 C 9.5522847 3 10 3.8954305 10 5 C 10 6.1045695 9.5522847 7 9 7 L 6 7 L 6 3 z M 6 8 L 6.5 8 L 8.75 8 L 9 8 C 9.0534726 8 9.1038355 8.0261011 9.15625 8.03125 C 10.186547 8.132461 11 9.1861289 11 10.5 C 11 11.880712 10.104569 13 9 13 L 6 13 L 6 8 z "
     class="ColorScheme-Text"
     />
</svg>

<svg xmlns="http://www.w3.org/2000/svg" viewBox="0 0 16 16"><path d="M2.375 2c-.129 0-.252.014-.375.031V3a1 1 0 0 1 1 1v8a1 1 0 0 1-1 1v.969c.123.018.246.031.375.031h7.875A3.742 3.742 0 0 0 14 10.25c0-1.654-1.082-3.03-2.563-3.531A2.633 2.633 0 0 0 12.5 4.625 2.62 2.62 0 0 0 9.875 2h-7.5zM6 3h3c.552 0 1 .895 1 2s-.448 2-1 2H6V3zm0 5h3c.053 0 .104.026.156.031C10.186 8.132 11 9.186 11 10.5c0 1.38-.895 2.5-2 2.5H6V8z" fill="currentColor" color="#5d656b"/></svg>
